flaticon/productivity-and-development/spray.svg

<svg xmlns="http://www.w3.org/2000/svg" width="32" height="32" viewBox="0 0 24 24">
    <path d="M 17.300781 9.472656 L 17.300781 5.324219 L 18.808594 5.324219 L 18.808594 0 L 4.519531 0 L 4.519531 1.976562 L 2.402344 1.976562 L 2.402344 3 L 4.519531 3 L 4.519531 5.324219 L 7.117188 5.324219 C 6.039062 10.609375 4.960938 12.128906 4.949219 12.144531 L 5.761719 12.761719 C 5.8125 12.691406 7.007812 11.078125 8.160156 5.324219 L 11.699219 5.324219 L 11.699219 9.472656 C 9.175781 11.128906 7.402344 14.953125 7.402344 19.394531 C 7.402344 21.910156 8.070312 24 8.070312 24 L 20.933594 24 C 20.933594 24 21.597656 21.730469 21.597656 19.394531 C 21.597656 14.953125 19.828125 11.128906 17.300781 9.472656 Z M 5.539062 1.019531 L 17.785156 1.019531 L 17.785156 4.304688 L 5.539062 4.304688 Z M 12.71875 5.324219 L 16.28125 5.324219 L 16.28125 8.9375 C 15.710938 8.714844 15.113281 8.59375 14.5 8.59375 C 13.886719 8.59375 13.289062 8.714844 12.71875 8.9375 Z M 20.148438 22.980469 L 8.851562 22.980469 C 8.566406 21.835938 8.425781 20.632812 8.425781 19.394531 C 8.425781 14.003906 11.148438 9.613281 14.5 9.613281 C 17.851562 9.613281 20.578125 14.003906 20.578125 19.394531 C 20.578125 20.632812 20.433594 21.835938 20.148438 22.980469 Z M 20.148438 22.980469"/>
</svg>

<svg xmlns="http://www.w3.org/2000/svg" width="32" height="32" viewBox="0 0 24 24">
    <path d="M17.3 9.473V5.324h1.509V0H4.519v1.977H2.403V3H4.52v2.324h2.597C6.04 10.61 4.961 12.13 4.95 12.144l.813.618c.05-.07 1.246-1.684 2.398-7.438h3.54v4.149c-2.524 1.656-4.298 5.48-4.298 9.922 0 2.515.668 4.605.668 4.605h12.864s.664-2.27.664-4.605c0-4.442-1.77-8.266-4.297-9.922zM5.54 1.02h12.245v3.285H5.54zm7.179 4.304h3.562v3.614a4.88 4.88 0 0 0-1.781-.344 4.88 4.88 0 0 0-1.781.344zm7.43 17.656H8.851a14.827 14.827 0 0 1-.426-3.585c0-5.391 2.722-9.782 6.074-9.782s6.078 4.39 6.078 9.782c0 1.238-.144 2.44-.43 3.585zm0 0"/>
</svg>
